symbolic/22x22/apps/accessories-notes.svg

<svg xmlns="http://www.w3.org/2000/svg" width="22" height="22" version="1"><g transform="translate(-1 -1)"><path style="opacity:.2" d="M3 2.5c-.554 0-1 .446-1 1v18c0 .554.446 1 1 1h11l8-8v-11c0-.554-.446-1-1-1z"/><path style="fill:#fecd38" d="M3 2c-.554 0-1 .446-1 1v18c0 .554.446 1 1 1h11l8-8V3c0-.554-.446-1-1-1z"/><path style="fill:#ffe69b" d="M22 14h-7a1 1 0 0 0-1 1v7z"/><path style="opacity:.2;fill:#fff" d="M3 2c-.554 0-1 .446-1 1v.5c0-.554.446-1 1-1h18c.554 0 1 .446 1 1V3c0-.554-.446-1-1-1zM15 14a1 1 0 0 0-1 1v.5a1 1 0 0 1 1-1h6.5l.5-.5z"/><rect style="opacity:.1" width="16" height="2" x="4" y="7.5" rx="1" ry="1"/><rect style="fill:#4f4f4f" width="16" height="2" x="4" y="7" rx="1" ry="1"/><rect style="opacity:.1" width="11" height="2" x="4" y="11.5" rx="1" ry="1"/><rect style="fill:#4f4f4f" width="11" height="2" x="4" y="11" rx="1" ry="1"/><rect style="opacity:.1" width="7" height="2" x="4" y="15.5" rx="1" ry="1"/><rect style="fill:#4f4f4f" width="7" height="2" x="4" y="15" rx="1" ry="1"/></g></svg>

<svg xmlns="http://www.w3.org/2000/svg" width="22" height="22" version="1">
 <g transform="translate(-1,-1)">
  <path style="opacity:0.2" d="M 3,2.5 C 2.446,2.5 2,2.946 2,3.5 V 21.5 C 2,22.054 2.446,22.5 3,22.5 H 14 L 22,14.5 V 3.5 C 22,2.946 21.554,2.5 21,2.5 Z"/>
  <path style="fill:#fecd38" d="M 3,2 C 2.446,2 2,2.446 2,3 V 21 C 2,21.554 2.446,22 3,22 H 14 L 22,14 V 3 C 22,2.446 21.554,2 21,2 Z"/>
  <path style="fill:#ffe69b" d="M 22,14 H 15 C 14.448,14 14,14.448 14,15 V 22 Z"/>
  <path style="opacity:0.2;fill:#ffffff" d="M 3,2 C 2.446,2 2,2.446 2,3 V 3.5 C 2,2.946 2.446,2.5 3,2.5 H 21 C 21.554,2.5 22,2.946 22,3.5 V 3 C 22,2.446 21.554,2 21,2 Z"/>
  <path style="opacity:0.2;fill:#ffffff" d="M 15,14 C 14.448,14 14,14.448 14,15 V 15.5 C 14,14.948 14.448,14.5 15,14.5 H 21.5 L 22,14 Z"/>
  <rect style="opacity:0.1" width="16" height="2" x="4" y="7.5" rx="1" ry="1"/>
  <rect style="fill:#4f4f4f" width="16" height="2" x="4" y="7" rx="1" ry="1"/>
  <rect style="opacity:0.1" width="11" height="2" x="4" y="11.5" rx="1" ry="1"/>
  <rect style="fill:#4f4f4f" width="11" height="2" x="4" y="11" rx="1" ry="1"/>
  <rect style="opacity:0.1" width="7" height="2" x="4" y="15.5" rx="1" ry="1"/>
  <rect style="fill:#4f4f4f" width="7" height="2" x="4" y="15" rx="1" ry="1"/>
 </g>
</svg>
